X: 1
T: John Kelly's Concertina
M: 4/4
L: 1/8
R: reel
K: Gmaj
D |:G3F GABG |AGEG GABd |(3ddd gd edBd|(3ddd ed {e}dBAE |
G3F GABG |AGEG GABd|(3ddd gd edBG |1A2 G2 GEDE:|2A2 G2 GABd||
e3e edBd |d3d dBAB| c2ec B2dB |BAAG AGEG|
G3F GABG |AGEG GABd|(3ddd gd edBG|A2 G2 GABd:|
